src/image/cloud-sun-solid.svg

<svg aria-hidden="true" focusable="false" data-prefix="fas" data-icon="cloud-sun" class="svg-inline--fa fa-cloud-sun fa-w-20" role="img" xmlns="http://www.w3.org/2000/svg" viewBox="0 0 640 512"><path fill="currentColor" d="M575.2 325.7c.2-1.9.8-3.7.8-5.6 0-35.3-28.7-64-64-64-12.6 0-24.2 3.8-34.1 10-17.6-38.8-56.5-66-101.9-66-61.8 0-112 50.1-112 112 0 3 .7 5.8.9 8.7-49.6 3.7-88.9 44.7-88.9 95.3 0 53 43 96 96 96h272c53 0 96-43 96-96 0-42.1-27.2-77.4-64.8-90.4zm-430.4-22.6c-43.7-43.7-43.7-114.7 0-158.3 43.7-43.7 114.7-43.7 158.4 0 9.7 9.7 16.9 20.9 22.3 32.7 9.8-3.7 20.1-6 30.7-7.5L386 81.1c4-11.9-7.3-23.1-19.2-19.2L279 91.2 237.5 8.4C232-2.8 216-2.8 210.4 8.4L169 91.2 81.1 61.9C69.3 58 58 69.3 61.9 81.1l29.3 87.8-82.8 41.5c-11.2 5.6-11.2 21.5 0 27.1l82.8 41.4-29.3 87.8c-4 11.9 7.3 23.1 19.2 19.2l76.1-25.3c6.1-12.4 14-23.7 23.6-33.5-13.1-5.4-25.4-13.4-36-24zm-4.8-79.2c0 40.8 29.3 74.8 67.9 82.3 8-4.7 16.3-8.8 25.2-11.7 5.4-44.3 31-82.5 67.4-105C287.3 160.4 258 140 224 140c-46.3 0-84 37.6-84 83.9z"></path></svg>

<svg width="640" height="512" viewBox="0 0 640 512" fill="none" xmlns="http://www.w3.org/2000/svg">
<path d="M575.2 325.7C575.4 323.8 576 322 576 320.1C576 284.8 547.3 256.1 512 256.1C499.4 256.1 487.8 259.9 477.9 266.1C460.3 227.3 421.4 200.1 376 200.1C314.2 200.1 264 250.2 264 312.1C264 315.1 264.7 317.9 264.9 320.8C215.3 324.5 176 365.5 176 416.1C176 469.1 219 512.1 272 512.1H544C597 512.1 640 469.1 640 416.1C640 374 612.8 338.7 575.2 325.7ZM144.8 303.1C101.1 259.4 101.1 188.4 144.8 144.8C188.5 101.1 259.5 101.1 303.2 144.8C312.9 154.5 320.1 165.7 325.5 177.5C335.3 173.8 345.6 171.5 356.2 170L386 81.1C390 69.2 378.7 58 366.8 61.9L279 91.2L237.5 8.4C232 -2.8 216 -2.8 210.4 8.4L169 91.2L81.1 61.9C69.3 58 58 69.3 61.9 81.1L91.2 168.9L8.4 210.4C-2.8 216 -2.8 231.9 8.4 237.5L91.2 278.9L61.9 366.7C57.9 378.6 69.2 389.8 81.1 385.9L157.2 360.6C163.3 348.2 171.2 336.9 180.8 327.1C167.7 321.7 155.4 313.7 144.8 303.1ZM140 223.9C140 264.7 169.3 298.7 207.9 306.2C215.9 301.5 224.2 297.4 233.1 294.5C238.5 250.2 264.1 212 300.5 189.5C287.3 160.4 258 140 224 140C177.7 140 140 177.6 140 223.9Z" fill="#002B7F"/>
</svg>
